; HEADER_BLOCK_START
; generated by OrcaSlicer 2.0.0 on 2024-04-15 at 00:45:28
; total layer number: 139
; filament_density: 1.24
; filament_diameter: 2.85
; max_z_height: 25.09
; HEADER_BLOCK_END

; THUMBNAIL_BLOCK_START

;
; THUMBNAIL_BLOCK_END

; external perimeters extrusion width = 0.40mm
; perimeters extrusion width = 0.45mm
; infill extrusion width = 0.50mm
; solid infill extrusion width = 0.45mm
; top infill extrusion width = 0.40mm
; first layer extrusion width = 0.45mm

; EXECUTABLE_BLOCK_START
M73 P0 R18
M201 X3000 Y3000 Z500 E10000
M203 X500 Y500 Z12 E120
M204 P1500 R1500 T1500
M205 X20.00 Y20.00 Z0.40 E2.50 ; sets the jerk limits, mm/sec
;TYPE:Custom
; # # # # # # START Header
G21; metric values
G90; absolute positioning
M82 ; set extruder to absolute mode
M107; start with the fan off

M140 S60; start bed heating

G28 X0 Y0 Z0; move X/Y/Z to endstops
G1 X1 Y6 F15000; move X/Y to start position
G1 Z35 F9000; move Z to start position

; Wait for bed and nozzle temperatures
M190 S55; wait for bed temperature - 5
M140 S60; continue bed heating
M109 S200; wait for nozzle temperature

; Purge and prime
M83; set extruder to relative mode
G92 E0; reset extrusion distance
G0 X0 Y1 F10000
G1 F150 E20 ; compress the bowden tube
G1 E-8 F1200
G0 X30 Y1 F5000
G0 F1200 Z0.125; Cut the connection to priming blob
G0 X100 F10000; disconnect with the prime blob
G0 X50; Avoid the metal clip holding the Ultimaker glass plate
G0 Z0.2 F720
G1 E8 F1200
M73 P1 R17
G1 X80 E3 F1000; intro line 1
G1 X110 E4 F1000 ; intro line 2
G1 X140 F600; drag filament to decompress bowden tube
G1 X100 F3200; wipe backwards a bit
G1 X150 F3200; back to where there is no plastic: avoid dragging
G92 E0; reset extruder reference
M82; set extruder to absolute mode

; # # # # # # END Header
G90
G21
M83 ; use relative distances for extrusion
; filament start gcode
M106 S0
;LAYER_CHANGE
;Z:0.25
;HEIGHT:0.25
;BEFORE_LAYER_CHANGE
;0.25
G92 E0

G1 E-4.5 F2100
;_SET_FAN_SPEED_CHANGING_LAYER
; printing object box.stl id:2150117362288 copy 0
G1 X99.758 Y102.35 F7200
G1 Z.25 F3600
G1 E4.5 F2100
;TYPE:Sparse infill
;WIDTH:0.45
G1 F900
M73 P2 R17
G1 X99.758 Y100.505 E.02829
G1 X100.608 Y101.362 E.01852
G1 X101.288 Y102.104 E.01543
G1 X101.859 Y102.847 E.01436
G1 X102.306 Y103.59 E.01329
G1 X102.64 Y104.332 E.01248
G1 X102.874 Y105.075 E.01194
G1 X103.022 Y105.817 E.01161
G1 X103.094 Y106.56 E.01144
G1 X103.092 Y107.302 E.01138
G1 X103.014 Y108.045 E.01145
G1 X102.853 Y108.787 E.01165
G1 X102.595 Y109.53 E.01205
G1 X102.223 Y110.272 E.01274
G1 X101.72 Y111.015 E.01374
G1 X101.091 Y111.757 E.01493
G1 X99.758 Y113.115 E.02917
G1 X99.758 Y124.266 E.17095
G1 X100.229 Y124.742 E.01028
G1 X112.602 Y124.742 E.18968
G1 X111.511 Y123.638 E.0238
G1 X110.831 Y122.896 E.01543
G1 X110.261 Y122.153 E.01436
G1 X109.813 Y121.411 E.01329
G1 X109.48 Y120.668 E.01248
G1 X109.246 Y119.925 E.01194
G1 X109.097 Y119.183 E.01161
G1 X109.026 Y118.44 E.01144
G1 X109.028 Y117.698 E.01138
G1 X109.105 Y116.955 E.01145
G1 X109.266 Y116.213 E.01165
G1 X109.524 Y115.47 E.01205
G1 X109.897 Y114.728 E.01274
G1 X110.399 Y113.985 E.01374
G1 X111.029 Y113.243 E.01493
G1 X112.489 Y111.757 E.03193
G1 X113.169 Y111.015 E.01543
G1 X113.739 Y110.272 E.01436
G1 X114.187 Y109.53 E.01329
G1 X114.52 Y108.787 E.01248
G1 X114.754 Y108.045 E.01194
G1 X114.903 Y107.302 E.01161
G1 X114.974 Y106.56 E.01144
G1 X114.972 Y105.817 E.01138
G1 X114.895 Y105.075 E.01145
G1 X114.734 Y104.332 E.01165
G1 X114.476 Y103.59 E.01205
G1 X114.103 Y102.847 E.01274
G1 X113.601 Y102.104 E.01374
G1 X112.971 Y101.362 E.01493
G1 X111.89 Y100.258 E.02369
G1 X123.279 Y100.258 E.17459
G1 X124.242 Y101.234 E.02103
G1 X124.242 Y112.385 E.17095
G1 X123.392 Y113.243 E.01852
G1 X122.712 Y113.985 E.01543
G1 X122.141 Y114.728 E.01436
G1 X121.694 Y115.47 E.01329
G1 X121.36 Y116.213 E.01248
G1 X121.126 Y116.955 E.01194
G1 X120.978 Y117.698 E.01161
G1 X120.906 Y118.44 E.01144
G1 X120.908 Y119.183 E.01138
G1 X120.986 Y119.925 E.01145
G1 X121.147 Y120.668 E.01165
G1 X121.405 Y121.411 E.01205
G1 X121.777 Y122.153 E.01274
G1 X122.28 Y122.896 E.01374
G1 X122.909 Y123.638 E.01493
G1 X123.99 Y124.742 E.02369
M73 P3 R17
G1 X124.242 Y124.742 E.00386
G1 X124.242 Y123.149 E.02443
; stop printing object box.stl id:2150117362288 copy 0
M106 S255
;LAYER_CHANGE
;Z:0.43
;HEIGHT:0.18
;BEFORE_LAYER_CHANGE
;0.43
G92 E0

G1 E-4.03333 F2100
;WIPE_START
G1 F900
G1 X124.242 Y123.349 E-.46667
;WIPE_END
;_SET_FAN_SPEED_CHANGING_LAYER
M104 S205 ; set nozzle temperature
; printing object box.stl id:2150117362288 copy 0
G1 X124.25 Y114.41 Z.43 F7200
G1 E4.5 F2100
;WIDTH:0.5
G1 F871
G1 X124.25 Y112.565 E.02371
G1 X122.863 Y113.985 E.0255
G1 X122.266 Y114.728 E.01224
G1 X121.791 Y115.47 E.01133
G1 X121.43 Y116.213 E.01061
G1 X121.169 Y116.955 E.01011
G1 X120.995 Y117.698 E.0098
G1 X120.898 Y118.44 E.00962
G1 X120.875 Y119.183 E.00955
G1 X120.927 Y119.925 E.00956
G1 X121.061 Y120.668 E.0097
G1 X121.293 Y121.411 E.00999
G1 X121.639 Y122.153 E.01053
G1 X122.117 Y122.896 E.01135
G1 X122.731 Y123.638 E.01238
G1 X123.809 Y124.75 E.01989
G1 X112.789 Y124.75 E.14158
G1 X110.983 Y122.896 E.03327
G1 X110.386 Y122.153 E.01224
G1 X109.91 Y121.411 E.01133
G1 X109.549 Y120.668 E.01061
G1 X109.288 Y119.925 E.01011
G1 X109.114 Y119.183 E.0098
G1 X109.018 Y118.44 E.00962
G1 X108.994 Y117.698 E.00955
G1 X109.046 Y116.955 E.00956
G1 X109.181 Y116.213 E.0097
G1 X109.412 Y115.47 E.00999
G1 X109.758 Y114.728 E.01053
G1 X110.237 Y113.985 E.01135
G1 X110.85 Y113.243 E.01238
G1 X113.017 Y111.015 E.03993
G1 X113.614 Y110.272 E.01224
G1 X114.09 Y109.53 E.01133
G1 X114.451 Y108.787 E.01061
G1 X114.712 Y108.045 E.01011
G1 X114.886 Y107.302 E.0098
G1 X114.982 Y106.56 E.00962
G1 X115.006 Y105.817 E.00955
G1 X114.954 Y105.075 E.00956
G1 X114.819 Y104.332 E.0097
G1 X114.588 Y103.59 E.00999
G1 X114.242 Y102.847 E.01053
G1 X113.763 Y102.104 E.01135
G1 X113.15 Y101.362 E.01238
G1 X112.072 Y100.25 E.01989
G1 X123.091 Y100.25 E.14158
G1 X124.25 Y101.441 E.02135
G1 X124.25 Y103.286 E.02371
G1 X101.161 Y100.25 F7200
G1 F871
G1 X99.75 Y100.25 E.01813
G1 X99.75 Y100.684 E.00558
G1 X101.137 Y102.104 E.0255
G1 X101.734 Y102.847 E.01224
G1 X102.21 Y103.59 E.01133
G1 X102.57 Y104.332 E.01061
G1 X102.831 Y105.075 E.01011
G1 X103.005 Y105.817 E.0098
G1 X103.102 Y106.56 E.00962
G1 X103.125 Y107.302 E.00955
G1 X103.073 Y108.045 E.00956
G1 X102.939 Y108.787 E.0097
G1 X102.707 Y109.53 E.00999
G1 X102.361 Y110.272 E.01053
G1 X101.883 Y111.015 E.01135
G1 X101.269 Y111.757 E.01238
G1 X99.75 Y113.321 E.02801
G1 X99.75 Y124.446 E.14293
G1 X100.047 Y124.75 E.00547
G1 X101.893 Y124.75 E.02371
; stop printing object box.stl id:2150117362288 copy 0
;LAYER_CHANGE
;Z:0.61
;HEIGHT:0.18
;BEFORE_LAYER_CHANGE
;0.61
G92 E0

G1 E-4.325 F2100
;WIPE_START
G1 F2400
G1 X101.693 Y124.75 E-.175
;WIPE_END
;_SET_FAN_SPEED_CHANGING_LAYER
; printing object box.stl id:2150117362288 copy 0
G1 X99.75 Y115.333 Z.61 F7200
G1 E4.5 F2100
G1 F754
G1 X99.75 Y113.487 E.02371
G1 X101.452 Y111.757 E.03118
G1 X102.05 Y111.015 E.01225
G1 X102.505 Y110.272 E.01119
G1 X102.824 Y109.53 E.01039
G1 X103.028 Y108.787 E.00989
G1 X103.137 Y108.045 E.00964
G1 X103.163 Y107.302 E.00955
G1 X103.114 Y106.56 E.00956
G1 X102.992 Y105.817 E.00967
G1 X102.793 Y105.075 E.00988
G1 X102.505 Y104.332 E.01023
G1 X102.116 Y103.59 E.01077
G1 X101.611 Y102.847 E.01154
G1 X100.986 Y102.104 E.01247
G1 X99.75 Y100.868 E.02246
G1 X99.75 Y100.25 E.00794
G1 X100.977 Y100.25 E.01577
G1 X124.25 Y103.452 F7200
G1 F754
G1 X124.25 Y101.607 E.02371
G1 X122.907 Y100.25 E.02453
G1 X112.249 Y100.25 E.13695
G1 X113.332 Y101.362 E.01995
G1 X113.931 Y102.104 E.01225
G1 X114.386 Y102.847 E.01119
G1 X114.705 Y103.59 E.01039
G1 X114.909 Y104.332 E.00989
G1 X115.017 Y105.075 E.00964
G1 X115.043 Y105.817 E.00955
M73 P4 R17
G1 X114.995 Y106.56 E.00956
G1 X114.873 Y107.302 E.00967
G1 X114.673 Y108.045 E.00988
G1 X114.386 Y108.787 E.01023
G1 X113.997 Y109.53 E.01077
G1 X113.492 Y110.272 E.01154
G1 X112.867 Y111.015 E.01247
G1 X111.382 Y112.5 E.02698
G1 X110.668 Y113.243 E.01324
G1 X110.069 Y113.985 E.01225
G1 X109.614 Y114.728 E.01119
G1 X109.295 Y115.47 E.01039
G1 X109.091 Y116.213 E.00989
G1 X108.983 Y116.955 E.00964
G1 X108.957 Y117.698 E.00955
G1 X109.005 Y118.44 E.00956
G1 X109.127 Y119.183 E.00967
G1 X109.327 Y119.925 E.00988
G1 X109.614 Y120.668 E.01023
G1 X110.003 Y121.411 E.01077
G1 X110.508 Y122.153 E.01154
G1 X111.133 Y122.896 E.01247
G1 X112.973 Y124.75 E.03357
G1 X123.632 Y124.75 E.13695
G1 X122.548 Y123.638 E.01995
G1 X121.95 Y122.896 E.01225
G1 X121.495 Y122.153 E.01119
G1 X121.176 Y121.411 E.01039
G1 X120.972 Y120.668 E.00989
G1 X120.863 Y119.925 E.00964
G1 X120.837 Y119.183 E.00955
G1 X120.886 Y118.44 E.00956
G1 X121.008 Y117.698 E.00967
G1 X121.207 Y116.955 E.00988
G1 X121.495 Y116.213 E.01023
G1 X121.884 Y115.47 E.01077
G1 X122.389 Y114.728 E.01154
G1 X123.014 Y113.985 E.01247
G1 X124.25 Y112.749 E.02246
G1 X124.25 Y114.594 E.02371
; stop printing object box.stl id:2150117362288 copy 0
;LAYER_CHANGE
;Z:0.79
;HEIGHT:0.18
;BEFORE_LAYER_CHANGE
;0.79
G92 E0

G1 E-4.325 F2100
;WIPE_START
G1 F2400
G1 X124.25 Y114.394 E-.175
;WIPE_END
;_SET_FAN_SPEED_CHANGING_LAYER
; printing object box.stl id:2150117362288 copy 0
G1 X124.25 Y114.773 Z.79 F7200
G1 E4.5 F2100
G1 F742
G1 X124.25 Y112.927 E.02371
G1 X123.164 Y113.985 E.01948
G1 X122.509 Y114.728 E.01272
G1 X121.974 Y115.47 E.01176
G1 X121.556 Y116.213 E.01095
G1 X121.242 Y116.955 E.01036
G1 X121.016 Y117.698 E.00997
G1 X120.869 Y118.44 E.00973
G1 X120.795 Y119.183 E.00959
G1 X120.795 Y119.925 E.00954
G1 X120.877 Y120.668 E.0096
G1 X121.053 Y121.411 E.00981
G1 X121.346 Y122.153 E.01025
G1 X121.777 Y122.896 E.01103
G1 X122.36 Y123.638 E.01213
G1 X123.452 Y124.75 E.02003
G1 X113.163 Y124.75 E.13221
G1 X112.808 Y124.381 E.00658
G1 X111.284 Y122.896 E.02734
G1 X110.629 Y122.153 E.01272
G1 X110.094 Y121.411 E.01176
G1 X109.676 Y120.668 E.01095
G1 X109.361 Y119.925 E.01036
G1 X109.135 Y119.183 E.00997
G1 X108.988 Y118.44 E.00973
G1 X108.914 Y117.698 E.00959
G1 X108.915 Y116.955 E.00954
G1 X108.996 Y116.213 E.0096
G1 X109.173 Y115.47 E.00981
G1 X109.465 Y114.728 E.01025
G1 X109.896 Y113.985 E.01103
G1 X110.479 Y113.243 E.01213
G1 X111.192 Y112.5 E.01323
G1 X112.717 Y111.015 E.02734
G1 X113.371 Y110.272 E.01272
G1 X113.906 Y109.53 E.01176
G1 X114.324 Y108.787 E.01095
G1 X114.639 Y108.045 E.01036
G1 X114.865 Y107.302 E.00997
G1 X115.012 Y106.56 E.00973
G1 X115.086 Y105.817 E.00959
G1 X115.085 Y105.075 E.00954
G1 X115.004 Y104.332 E.0096
G1 X114.827 Y103.59 E.00981
G1 X114.535 Y102.847 E.01025
G1 X114.104 Y102.104 E.01103
G1 X113.521 Y101.362 E.01213
G1 X112.429 Y100.25 E.02003
G1 X122.718 Y100.25 E.13221
G1 X123.073 Y100.619 E.00658
G1 X124.25 Y101.766 E.02112
G1 X124.25 Y103.612 E.02371
G1 X100.799 Y100.25 F7200
G1 F742
G1 X99.75 Y100.25 E.01348
G1 X99.75 Y101.047 E.01023
G1 X100.836 Y102.104 E.01948
G1 X101.491 Y102.847 E.01272
G1 X102.026 Y103.59 E.01176
M73 P5 R17
G1 X102.444 Y104.332 E.01095
G1 X102.758 Y105.075 E.01036
G1 X102.984 Y105.817 E.00997
G1 X103.131 Y106.56 E.00973
G1 X103.205 Y107.302 E.00959
G1 X103.205 Y108.045 E.00954
G1 X103.123 Y108.787 E.0096
G1 X102.947 Y109.53 E.00981
G1 X102.655 Y110.272 E.01025
G1 X102.223 Y111.015 E.01103
G1 X101.64 Y111.757 E.01213
G1 X100.927 Y112.5 E.01323
G1 X99.75 Y113.647 E.02112
G1 X99.75 Y115.492 E.02371
; stop printing object box.stl id:2150117362288 copy 0
;LAYER_CHANGE
;Z:0.97
;HEIGHT:0.18
;BEFORE_LAYER_CHANGE
;0.97
G92 E0

G1 E-4.325 F2100
;WIPE_START
G1 F2400
G1 X99.75 Y115.292 E-.175
;WIPE_END
;_SET_FAN_SPEED_CHANGING_LAYER
; printing object box.stl id:2150117362288 copy 0
G1 X99.75 Y115.645 Z.97 F7200
G1 E4.5 F2100
G1 F738
G1 X99.75 Y113.8 E.02371
G1 X101.123 Y112.5 E.02429
G1 X101.836 Y111.757 E.01323
G1 X102.403 Y111.015 E.01201
G1 X102.81 Y110.272 E.01088
G1 X103.075 Y109.53 E.01013
G1 X103.223 Y108.787 E.00973
G1 X103.277 Y108.045 E.00957
G1 X103.252 Y107.302 E.00955
G1 X103.152 Y106.56 E.00963
G1 X102.98 Y105.817 E.0098
G1 X102.728 Y105.075 E.01007
G1 X102.386 Y104.332 E.01051
G1 X101.938 Y103.59 E.01114
G1 X101.371 Y102.847 E.012
G1 X100.685 Y102.104 E.013
G1 X99.75 Y101.22 E.01653
G1 X99.75 Y100.25 E.01246
G1 X100.626 Y100.25 E.01125
G1 X124.25 Y103.764 F7200
G1 F738
G1 X124.25 Y101.919 E.02371
G1 X122.877 Y100.619 E.02429
G1 X122.522 Y100.25 E.00658
G1 X112.613 Y100.25 E.12732
G1 X113.004 Y100.619 E.0069
G1 X113.717 Y101.362 E.01323
G1 X114.284 Y102.104 E.01201
G1 X114.691 Y102.847 E.01088
G1 X114.956 Y103.59 E.01013
G1 X115.104 Y104.332 E.00973
G1 X115.158 Y105.075 E.00957
G1 X115.132 Y105.817 E.00955
G1 X115.033 Y106.56 E.00963
G1 X114.86 Y107.302 E.0098
G1 X114.609 Y108.045 E.01007
G1 X114.266 Y108.787 E.01051
G1 X113.819 Y109.53 E.01114
G1 X113.252 Y110.272 E.012
G1 X112.565 Y111.015 E.013
G1 X110.996 Y112.5 E.02776
G1 X110.283 Y113.243 E.01323
G1 X109.716 Y113.985 E.01201
G1 X109.309 Y114.728 E.01088
G1 X109.044 Y115.47 E.01013
G1 X108.896 Y116.213 E.00973
G1 X108.842 Y116.955 E.00957
G1 X108.868 Y117.698 E.00955
G1 X108.967 Y118.44 E.00963
G1 X109.14 Y119.183 E.0098
G1 X109.391 Y119.925 E.01007
G1 X109.734 Y120.668 E.01051
G1 X110.181 Y121.411 E.01114
G1 X110.748 Y122.153 E.012
G1 X111.435 Y122.896 E.013
G1 X113.004 Y124.381 E.02776
G1 X113.358 Y124.75 E.00658
G1 X123.267 Y124.75 E.12732
G1 X122.877 Y124.381 E.0069
G1 X122.164 Y123.638 E.01323
G1 X121.597 Y122.896 E.01201
G1 X121.19 Y122.153 E.01088
G1 X120.925 Y121.411 E.01013
G1 X120.777 Y120.668 E.00973
G1 X120.723 Y119.925 E.00957
G1 X120.748 Y119.183 E.00955
G1 X120.848 Y118.44 E.00963
G1 X121.02 Y117.698 E.0098
G1 X121.272 Y116.955 E.01007
G1 X121.614 Y116.213 E.01051
G1 X122.062 Y115.47 E.01114
G1 X122.629 Y114.728 E.012
G1 X123.315 Y113.985 E.013
G1 X124.25 Y113.1 E.01653
G1 X124.25 Y114.946 E.02371
; stop printing object box.stl id:2150117362288 copy 0
;LAYER_CHANGE
;Z:1.15
;HEIGHT:0.18
;BEFORE_LAYER_CHANGE
;1.15
G92 E0

G1 E-4.325 F2100
;WIPE_START
G1 F2400
G1 X124.25 Y114.746 E-.175
;WIPE_END
;_SET_FAN_SPEED_CHANGING_LAYER
; printing object box.stl id:2150117362288 copy 0
G1 X124.25 Y115.114 Z1.15 F7200
G1 E4.5 F2100
G1 F735
G1 X124.25 Y113.268 E.02371
G1 X123.469 Y113.985 E.01362
G1 X122.747 Y114.728 E.01331
G1 X122.147 Y115.47 E.01227
G1 X121.668 Y116.213 E.01135
G1 X121.298 Y116.955 E.01066
G1 X121.02 Y117.698 E.01019
G1 X120.822 Y118.44 E.00987
G1 X120.697 Y119.183 E.00967
G1 X120.645 Y119.925 E.00956
G1 X120.671 Y120.668 E.00955
G1 X120.791 Y121.411 E.00966
G1 X121.026 Y122.153 E.01001
G1 X121.408 Y122.896 E.01073
G1 X121.959 Y123.638 E.01189
G1 X122.673 Y124.381 E.01324
G1 X123.076 Y124.75 E.00702
G1 X113.562 Y124.75 E.12224
G1 X113.207 Y124.381 E.00658
G1 X111.588 Y122.896 E.02823
M73 P6 R17
G1 X110.866 Y122.153 E.01331
G1 X110.266 Y121.411 E.01227
G1 X109.788 Y120.668 E.01135
G1 X109.417 Y119.925 E.01066
G1 X109.139 Y119.183 E.01019
G1 X108.941 Y118.44 E.00987
G1 X108.816 Y117.698 E.00967
G1 X108.764 Y116.955 E.00956
G1 X108.791 Y116.213 E.00955
G1 X108.91 Y115.47 E.00966
G1 X109.146 Y114.728 E.01001
G1 X109.527 Y113.985 E.01073
G1 X110.079 Y113.243 E.01189
M73 P6 R16
G1 X110.793 Y112.5 E.01324
G1 X112.412 Y111.015 E.02823
G1 X113.134 Y110.272 E.01331
G1 X113.734 Y109.53 E.01227
G1 X114.212 Y108.787 E.01135
G1 X114.583 Y108.045 E.01066
G1 X114.861 Y107.302 E.01019
G1 X115.059 Y106.56 E.00987
G1 X115.184 Y105.817 E.00967
G1 X115.236 Y105.075 E.00956
G1 X115.209 Y104.332 E.00955
G1 X115.09 Y103.59 E.00966
G1 X114.854 Y102.847 E.01001
G1 X114.473 Y102.104 E.01073
G1 X113.921 Y101.362 E.01189
G1 X113.207 Y100.619 E.01324
G1 X112.804 Y100.25 E.00702
G1 X122.318 Y100.25 E.12224
G1 X122.673 Y100.619 E.00658
G1 X124.25 Y102.065 E.02749
G1 X124.25 Y103.911 E.02371
G1 X100.458 Y100.25 F7200
G1 F735
G1 X99.75 Y100.25 E.00909
G1 X99.75 Y101.388 E.01462
G1 X100.531 Y102.104 E.01362
G1 X101.253 Y102.847 E.01331
G1 X101.853 Y103.59 E.01227
G1 X102.332 Y104.332 E.01135
G1 X102.702 Y105.075 E.01066
G1 X102.98 Y105.817 E.01019
G1 X103.178 Y106.56 E.00987
G1 X103.303 Y107.302 E.00967
G1 X103.355 Y108.045 E.00956
