; HEADER_BLOCK_START
; generated by OrcaSlicer 2.0.0 on 2024-04-14 at 13:22:33
; total layer number: 55
; filament_density: 1.24
; filament_diameter: 2.85
; max_z_height: 9.97
; HEADER_BLOCK_END

; THUMBNAIL_BLOCK_START

;
; THUMBNAIL_BLOCK_END

; external perimeters extrusion width = 0.40mm
; perimeters extrusion width = 0.45mm
; infill extrusion width = 0.50mm
; solid infill extrusion width = 0.45mm
; top infill extrusion width = 0.40mm
; first layer extrusion width = 0.45mm

; EXECUTABLE_BLOCK_START
M73 P0 R2
M201 X3000 Y3000 Z500 E10000
M203 X500 Y500 Z12 E120
M204 P1500 R1500 T1500
M205 X20.00 Y20.00 Z0.40 E2.50 ; sets the jerk limits, mm/sec
;TYPE:Custom
; # # # # # # START Header
G21; metric values
G90; absolute positioning
M82 ; set extruder to absolute mode
M107; start with the fan off

M140 S60; start bed heating

G28 X0 Y0 Z0; move X/Y/Z to endstops
G1 X1 Y6 F15000; move X/Y to start position
G1 Z35 F9000; move Z to start position

; Wait for bed and nozzle temperatures
M190 S55; wait for bed temperature - 5
M140 S60; continue bed heating
M109 S200; wait for nozzle temperature

; Purge and prime
M83; set extruder to relative mode
G92 E0; reset extrusion distance
G0 X0 Y1 F10000
G1 F150 E20 ; compress the bowden tube
M73 P2 R2
G1 E-8 F1200
G0 X30 Y1 F5000
G0 F1200 Z0.125; Cut the connection to priming blob
G0 X100 F10000; disconnect with the prime blob
G0 X50; Avoid the metal clip holding the Ultimaker glass plate
G0 Z0.2 F720
G1 E8 F1200
M73 P8 R1
G1 X80 E3 F1000; intro line 1
M73 P9 R1
G1 X110 E4 F1000 ; intro line 2
G1 X140 F600; drag filament to decompress bowden tube
M73 P11 R1
G1 X100 F3200; wipe backwards a bit
M73 P12 R1
G1 X150 F3200; back to where there is no plastic: avoid dragging
G92 E0; reset extruder reference
M82; set extruder to absolute mode

; # # # # # # END Header
G90
G21
M83 ; use relative distances for extrusion
; filament start gcode
M106 S0
;LAYER_CHANGE
;Z:0.25
;HEIGHT:0.25
;BEFORE_LAYER_CHANGE
;0.25
G92 E0

G1 E-4.5 F2100
;_SET_FAN_SPEED_CHANGING_LAYER
; printing object box_small.stl id:6422194856871735347 copy 0
G1 X116.657 Y107.758 F7200
G1 Z.25 F3600
M73 P14 R1
G1 E4.5 F2100
;TYPE:Sparse infill
;WIDTH:0.45
M73 P15 R1
G1 F600
M73 P18 R1
G1 X114.812 Y107.758 E.02829
G1 X114.754 Y108.045 E.00449
M73 P19 R1
G1 X114.52 Y108.787 E.01194
G1 X114.187 Y109.53 E.01248
M73 P20 R1
G1 X113.739 Y110.272 E.01329
G1 X113.169 Y111.015 E.01436
G1 X112.489 Y111.757 E.01543
G1 X111.029 Y113.243 E.03193
G1 X110.399 Y113.985 E.01493
G1 X109.897 Y114.728 E.01374
G1 X109.524 Y115.47 E.01274
G1 X109.266 Y116.213 E.01205
G1 X109.105 Y116.955 E.01165
G1 X109.075 Y117.242 E.00443
G1 X107.258 Y117.242 E.02786
M73 P21 R1
G1 X107.258 Y117.215 E.00043
; stop printing object box_small.stl id:6422194856871735347 copy 0
M106 S255
;LAYER_CHANGE
;Z:0.43
;HEIGHT:0.18
;BEFORE_LAYER_CHANGE
;0.43
G92 E0

G1 E-4.03333 F2100
;WIPE_START
G1 F900
G1 X107.258 Y117.242 E-.06529
G1 X107.43 Y117.242 E-.40138
;WIPE_END
;_SET_FAN_SPEED_CHANGING_LAYER
M104 S205 ; set nozzle temperature
; printing object box_small.stl id:6422194856871735347 copy 0
G1 X107.25 Y117.18 Z.43 F7200
G1 E4.5 F2100
;WIDTH:0.5
G1 F600
G1 X107.25 Y117.25 E.0009
G1 X109.026 Y117.25 E.02281
G1 X109.046 Y116.955 E.0038
G1 X109.181 Y116.213 E.0097
G1 X109.412 Y115.47 E.00999
G1 X109.758 Y114.728 E.01053
G1 X110.237 Y113.985 E.01135
G1 X110.85 Y113.243 E.01238
G1 X113.017 Y111.015 E.03993
M73 P22 R1
G1 X113.614 Y110.272 E.01224
G1 X114.09 Y109.53 E.01133
G1 X114.451 Y108.787 E.01061
G1 X114.712 Y108.045 E.01011
G1 X114.781 Y107.75 E.00389
G1 X116.626 Y107.75 E.02371
; stop printing object box_small.stl id:6422194856871735347 copy 0
;LAYER_CHANGE
;Z:0.61
;HEIGHT:0.18
;BEFORE_LAYER_CHANGE
;0.61
G92 E0

G1 E-4.325 F2100
;WIPE_START
G1 F2400
G1 X116.426 Y107.75 E-.175
;WIPE_END
;_SET_FAN_SPEED_CHANGING_LAYER
; printing object box_small.stl id:6422194856871735347 copy 0
G1 X116.598 Y107.75 Z.61 F7200
G1 E4.5 F2100
G1 F600
G1 X114.753 Y107.75 E.02371
M73 P23 R1
G1 X114.673 Y108.045 E.00392
G1 X114.386 Y108.787 E.01023
G1 X113.997 Y109.53 E.01077
G1 X113.492 Y110.272 E.01154
G1 X112.867 Y111.015 E.01247
G1 X111.382 Y112.5 E.02698
G1 X110.668 Y113.243 E.01324
G1 X110.069 Y113.985 E.01225
G1 X109.614 Y114.728 E.01119
G1 X109.295 Y115.47 E.01039
G1 X109.091 Y116.213 E.00989
G1 X108.983 Y116.955 E.00964
G1 X108.972 Y117.25 E.00379
M73 P24 R1
G1 X107.25 Y117.25 E.02213
G1 X107.25 Y117.127 E.00158
; stop printing object box_small.stl id:6422194856871735347 copy 0
;LAYER_CHANGE
;Z:0.79
;HEIGHT:0.18
;BEFORE_LAYER_CHANGE
;0.79
G92 E0

G1 E-4.325 F2100
;WIPE_START
G1 F2400
G1 X107.25 Y117.25 E-.1077
G1 X107.327 Y117.25 E-.0673
;WIPE_END
;_SET_FAN_SPEED_CHANGING_LAYER
; printing object box_small.stl id:6422194856871735347 copy 0
G1 X107.25 Y117.069 Z.79 F7200
G1 E4.5 F2100
G1 F600
G1 X107.25 Y117.25 E.00232
G1 X108.915 Y117.25 E.02139
G1 X108.915 Y116.955 E.00379
G1 X108.996 Y116.213 E.0096
G1 X109.173 Y115.47 E.00981
G1 X109.465 Y114.728 E.01025
G1 X109.896 Y113.985 E.01103
G1 X110.479 Y113.243 E.01213
G1 X111.192 Y112.5 E.01323
M73 P25 R1
G1 X112.717 Y111.015 E.02734
G1 X113.371 Y110.272 E.01272
G1 X113.906 Y109.53 E.01176
G1 X114.324 Y108.787 E.01095
G1 X114.639 Y108.045 E.01036
G1 X114.728 Y107.75 E.00396
G1 X116.574 Y107.75 E.02371
; stop printing object box_small.stl id:6422194856871735347 copy 0
;LAYER_CHANGE
;Z:0.97
;HEIGHT:0.18
;BEFORE_LAYER_CHANGE
;0.97
G92 E0

G1 E-4.325 F2100
;WIPE_START
G1 F2400
G1 X116.374 Y107.75 E-.175
;WIPE_END
;_SET_FAN_SPEED_CHANGING_LAYER
; printing object box_small.stl id:6422194856871735347 copy 0
G1 X116.554 Y107.75 Z.97 F7200
G1 E4.5 F2100
G1 F600
G1 X114.709 Y107.75 E.02371
M73 P26 R1
G1 X114.609 Y108.045 E.004
G1 X114.266 Y108.787 E.01051
G1 X113.819 Y109.53 E.01114
G1 X113.252 Y110.272 E.012
G1 X112.565 Y111.015 E.013
G1 X110.996 Y112.5 E.02776
G1 X110.283 Y113.243 E.01323
G1 X109.716 Y113.985 E.01201
G1 X109.309 Y114.728 E.01088
G1 X109.044 Y115.47 E.01013
G1 X108.896 Y116.213 E.00973
G1 X108.842 Y116.955 E.00957
G1 X108.852 Y117.25 E.00379
G1 X107.25 Y117.25 E.02059
M73 P27 R1
G1 X107.25 Y117.007 E.00313
; stop printing object box_small.stl id:6422194856871735347 copy 0
;LAYER_CHANGE
;Z:1.15
;HEIGHT:0.18
;BEFORE_LAYER_CHANGE
;1.15
G92 E0

G1 E-4.325 F2100
;WIPE_START
G1 F2400
G1 X107.25 Y117.207 E-.175
;WIPE_END
;_SET_FAN_SPEED_CHANGING_LAYER
; printing object box_small.stl id:6422194856871735347 copy 0
G1 X107.25 Y116.939 Z1.15 F7200
G1 E4.5 F2100
G1 F600
G1 X107.25 Y117.25 E.00399
G1 X108.785 Y117.25 E.01972
G1 X108.764 Y116.955 E.0038
G1 X108.791 Y116.213 E.00955
G1 X108.91 Y115.47 E.00966
G1 X109.146 Y114.728 E.01001
G1 X109.527 Y113.985 E.01073
G1 X110.079 Y113.243 E.01189
G1 X110.793 Y112.5 E.01324
G1 X112.412 Y111.015 E.02823
G1 X113.134 Y110.272 E.01331
M73 P28 R1
G1 X113.734 Y109.53 E.01227
G1 X114.212 Y108.787 E.01135
G1 X114.583 Y108.045 E.01066
G1 X114.693 Y107.75 E.00404
G1 X116.539 Y107.75 E.02371
; stop printing object box_small.stl id:6422194856871735347 copy 0
;LAYER_CHANGE
;Z:1.33
;HEIGHT:0.18
;BEFORE_LAYER_CHANGE
;1.33
G92 E0

G1 E-4.325 F2100
;WIPE_START
G1 F2400
G1 X116.339 Y107.75 E-.175
;WIPE_END
;_SET_FAN_SPEED_CHANGING_LAYER
; printing object box_small.stl id:6422194856871735347 copy 0
G1 X116.527 Y107.75 Z1.33 F7200
G1 E4.5 F2100
G1 F600
G1 X114.682 Y107.75 E.02371
M73 P29 R1
G1 X114.561 Y108.045 E.00409
G1 X114.162 Y108.787 E.01083
G1 X113.652 Y109.53 E.01157
G1 X113.016 Y110.272 E.01256
G1 X112.256 Y111.015 E.01365
G1 X110.579 Y112.5 E.02878
G1 X109.863 Y113.243 E.01325
G1 X109.329 Y113.985 E.01176
G1 X108.974 Y114.728 E.01057
G1 X108.769 Y115.47 E.0099
G1 X108.679 Y116.213 E.00961
G1 X108.681 Y116.955 E.00954
G1 X108.712 Y117.25 E.00381
G1 X107.25 Y117.25 E.01879
M73 P30 R1
G1 X107.25 Y116.867 E.00492
; stop printing object box_small.stl id:6422194856871735347 copy 0
;LAYER_CHANGE
;Z:1.51
;HEIGHT:0.18
;BEFORE_LAYER_CHANGE
;1.51
G92 E0

G1 E-4.325 F2100
;WIPE_START
G1 F2400
G1 X107.25 Y117.067 E-.175
;WIPE_END
;_SET_FAN_SPEED_CHANGING_LAYER
; printing object box_small.stl id:6422194856871735347 copy 0
G1 X107.25 Y116.789 Z1.51 F7200
G1 E4.5 F2100
G1 F600
G1 X107.25 Y117.25 E.00592
G1 X108.635 Y117.25 E.01779
G1 X108.592 Y116.955 E.00383
G1 X108.562 Y116.213 E.00955
G1 X108.621 Y115.47 E.00957
G1 X108.794 Y114.728 E.0098
G1 X109.118 Y113.985 E.01041
G1 X109.635 Y113.243 E.01162
G1 X110.353 Y112.5 E.01327
G1 X112.096 Y111.015 E.02943
G1 X112.898 Y110.272 E.01404
G1 X113.572 Y109.53 E.01288
M73 P31 R1
G1 X114.115 Y108.787 E.01182
G1 X114.543 Y108.045 E.01101
G1 X114.675 Y107.75 E.00415
G1 X116.52 Y107.75 E.02371
; stop printing object box_small.stl id:6422194856871735347 copy 0
;LAYER_CHANGE
;Z:1.69
;HEIGHT:0.18
;BEFORE_LAYER_CHANGE
;1.69
G92 E0

G1 E-4.325 F2100
;WIPE_START
G1 F2400
G1 X116.32 Y107.75 E-.175
;WIPE_END
;_SET_FAN_SPEED_CHANGING_LAYER
; printing object box_small.stl id:6422194856871735347 copy 0
G1 X116.518 Y107.75 Z1.69 F7200
G1 E4.5 F2100
G1 F600
G1 X114.673 Y107.75 E.02371
G1 X114.53 Y108.045 E.00421
M73 P32 R1
G1 X114.072 Y108.787 E.01121
G1 X113.494 Y109.53 E.01209
G1 X112.779 Y110.272 E.01324
G1 X111.93 Y111.015 E.01449
G1 X110.11 Y112.5 E.03018
G1 X109.389 Y113.243 E.0133
G1 X108.895 Y113.985 E.01146
G1 X108.603 Y114.728 E.01025
G1 X108.464 Y115.47 E.00971
G1 X108.438 Y116.213 E.00955
G1 X108.498 Y116.955 E.00957
G1 X108.551 Y117.25 E.00385
G1 X107.25 Y117.25 E.01672
M73 P33 R1
G1 X107.25 Y116.706 E.00699
; stop printing object box_small.stl id:6422194856871735347 copy 0
;LAYER_CHANGE
;Z:1.87
;HEIGHT:0.18
;BEFORE_LAYER_CHANGE
;1.87
G92 E0

G1 E-4.325 F2100
;WIPE_START
G1 F2400
G1 X107.25 Y116.906 E-.175
;WIPE_END
;_SET_FAN_SPEED_CHANGING_LAYER
; printing object box_small.stl id:6422194856871735347 copy 0
G1 X107.25 Y116.617 Z1.87 F7200
G1 E4.5 F2100
G1 F600
G1 X107.25 Y117.25 E.00813
G1 X108.462 Y117.25 E.01558
G1 X108.398 Y116.955 E.00388
G1 X108.307 Y116.213 E.00961
G1 X108.299 Y115.47 E.00954
G1 X108.4 Y114.728 E.00963
G1 X108.655 Y113.985 E.01009
G1 X109.124 Y113.243 E.01128
G1 X109.847 Y112.5 E.01332
G1 X110.773 Y111.757 E.01526
G1 X111.757 Y111.015 E.01583
M73 P34 R1
G1 X112.659 Y110.272 E.01501
G1 X113.418 Y109.53 E.01365
G1 X114.032 Y108.787 E.01238
G1 X114.522 Y108.045 E.01143
G1 X114.675 Y107.75 E.00427
G1 X116.521 Y107.75 E.02371
; stop printing object box_small.stl id:6422194856871735347 copy 0
;LAYER_CHANGE
;Z:2.05
;HEIGHT:0.18
;BEFORE_LAYER_CHANGE
;2.05
G92 E0

G1 E-4.325 F2100
;WIPE_START
G1 F2400
G1 X116.321 Y107.75 E-.175
;WIPE_END
;_SET_FAN_SPEED_CHANGING_LAYER
; printing object box_small.stl id:6422194856871735347 copy 0
G1 X116.528 Y107.75 Z2.05 F7200
G1 E4.5 F2100
G1 F600
G1 X114.683 Y107.75 E.02371
M73 P35 R1
G1 X114.518 Y108.045 E.00434
G1 X113.997 Y108.787 E.01165
G1 X113.344 Y109.53 E.0127
G1 X112.536 Y110.272 E.0141
G1 X111.574 Y111.015 E.01562
G1 X110.526 Y111.757 E.0165
G1 X109.556 Y112.5 E.0157
G1 X108.832 Y113.243 E.01332
G1 X108.396 Y113.985 E.01107
G1 X108.184 Y114.728 E.00992
G1 X108.125 Y115.47 E.00957
G1 X108.169 Y116.213 E.00956
G1 X108.292 Y116.955 E.00967
G1 X108.367 Y117.25 E.00391
G1 X110.213 Y117.25 E.02371
; stop printing object box_small.stl id:6422194856871735347 copy 0
;LAYER_CHANGE
;Z:2.23
;HEIGHT:0.18
;BEFORE_LAYER_CHANGE
;2.23
G92 E0

M73 P36 R1
G1 E-4.325 F2100
;WIPE_START
G1 F2400
G1 X110.013 Y117.25 E-.175
;WIPE_END
;_SET_FAN_SPEED_CHANGING_LAYER
; printing object box_small.stl id:6422194856871735347 copy 0
G1 X110.112 Y117.25 Z2.23 F7200
G1 E4.5 F2100
G1 F600
G1 X108.266 Y117.25 E.02371
G1 X108.179 Y116.955 E.00395
G1 X108.023 Y116.213 E.00975
G1 X107.94 Y115.47 E.0096
G1 X107.953 Y114.728 E.00954
G1 X108.114 Y113.985 E.00976
G1 X108.507 Y113.243 E.0108
G1 X109.228 Y112.5 E.0133
G1 X110.251 Y111.757 E.01624
G1 X111.377 Y111.015 E.01733
M73 P37 R1
G1 X112.41 Y110.272 E.01634
G1 X113.272 Y109.53 E.01462
G1 X113.965 Y108.787 E.01305
G1 X114.519 Y108.045 E.0119
G1 X114.695 Y107.75 E.00441
G1 X116.54 Y107.75 E.02371
; stop printing object box_small.stl id:6422194856871735347 copy 0
;LAYER_CHANGE
;Z:2.41
;HEIGHT:0.18
;BEFORE_LAYER_CHANGE
;2.41
G92 E0

G1 E-4.325 F2100
;WIPE_START
G1 F2400
G1 X116.34 Y107.75 E-.175
;WIPE_END
;_SET_FAN_SPEED_CHANGING_LAYER
; printing object box_small.stl id:6422194856871735347 copy 0
G1 X116.558 Y107.75 Z2.41 F7200
G1 E4.5 F2100
G1 F600
G1 X114.713 Y107.75 E.02371
M73 P38 R1
G1 X114.525 Y108.045 E.00449
G1 X113.938 Y108.787 E.01217
G1 X113.201 Y109.53 E.01344
G1 X112.279 Y110.272 E.01521
G1 X111.163 Y111.015 E.01722
G1 X109.938 Y111.757 E.01841
G1 X108.848 Y112.5 E.01695
G1 X108.137 Y113.243 E.0132
G1 X107.802 Y113.985 E.01047
G1 X107.705 Y114.728 E.00962
G1 X107.744 Y115.47 E.00955
G1 X107.869 Y116.213 E.00968
G1 X108.06 Y116.955 E.00985
M73 P39 R1
G1 X108.159 Y117.25 E.00399
G1 X110.004 Y117.25 E.02371
; stop printing object box_small.stl id:6422194856871735347 copy 0
;LAYER_CHANGE
;Z:2.59
;HEIGHT:0.18
;BEFORE_LAYER_CHANGE
;2.59
G92 E0

G1 E-4.325 F2100
;WIPE_START
G1 F2400
G1 X109.804 Y117.25 E-.175
;WIPE_END
;_SET_FAN_SPEED_CHANGING_LAYER
; printing object box_small.stl id:6422194856871735347 copy 0
G1 X109.89 Y117.25 Z2.59 F7200
G1 E4.5 F2100
G1 F600
G1 X108.045 Y117.25 E.02371
G1 X107.934 Y116.955 E.00405
G1 X107.707 Y116.213 E.00998
G1 X107.535 Y115.47 E.00979
G1 X107.436 Y114.728 E.00963
G1 X107.455 Y113.985 E.00954
G1 X107.703 Y113.243 E.01006
G1 X107.977 Y112.871 E.00593
M73 P40 R1
G1 X108.386 Y112.5 E.0071
G1 X109.569 Y111.757 E.01795
G1 X110.926 Y111.015 E.01987
G1 X112.143 Y110.272 E.01832
G1 X113.132 Y109.53 E.01589
G1 X113.915 Y108.787 E.01387
G1 X114.537 Y108.045 E.01245
G1 X114.736 Y107.75 E.00457
G1 X116.582 Y107.75 E.02371
; stop printing object box_small.stl id:6422194856871735347 copy 0
;LAYER_CHANGE
;Z:2.77
;HEIGHT:0.18
;BEFORE_LAYER_CHANGE
;2.77
G92 E0

G1 E-4.325 F2100
;WIPE_START
G1 F2400
G1 X116.382 Y107.75 E-.175
;WIPE_END
;_SET_FAN_SPEED_CHANGING_LAYER
; printing object box_small.stl id:6422194856871735347 copy 0
G1 X116.611 Y107.75 Z2.77 F7200
M73 P41 R1
G1 E4.5 F2100
G1 F600
G1 X114.766 Y107.75 E.02371
G1 X114.555 Y108.045 E.00465
G1 X113.897 Y108.787 E.01275
G1 X113.064 Y109.53 E.01434
G1 X111.998 Y110.272 E.0167
G1 X110.654 Y111.015 E.01973
G1 X108.368 Y112.129 E.03268
G1 X107.771 Y112.5 E.00903
G1 X107.376 Y112.871 E.00696
G1 X107.25 Y113.092 E.00327
G1 X107.25 Y115.191 E.02697
G1 X107.314 Y115.47 E.00367
M73 P42 R1
G1 X107.8 Y116.955 E.02008
G1 X107.923 Y117.25 E.00411
G1 X109.769 Y117.25 E.02371
; stop printing object box_small.stl id:6422194856871735347 copy 0
;LAYER_CHANGE
;Z:2.95
;HEIGHT:0.18
;BEFORE_LAYER_CHANGE
;2.95
G92 E0

G1 E-4.325 F2100
;WIPE_START
G1 F2400
G1 X109.569 Y117.25 E-.175
;WIPE_END
;_SET_FAN_SPEED_CHANGING_LAYER
; printing object box_small.stl id:6422194856871735347 copy 0
G1 X109.651 Y117.25 Z2.95 F7200
G1 E4.5 F2100
G1 F600
G1 X107.805 Y117.25 E.02371
G1 X107.659 Y116.955 E.00423
M73 P43 R1
G1 X107.25 Y115.912 E.0144
G1 X107.25 Y112.206 E.04761
G1 X110.33 Y111.015 E.04243
G1 X111.842 Y110.272 E.02164
G1 X112.997 Y109.53 E.01765
G1 X113.884 Y108.787 E.01486
G1 X114.579 Y108.045 E.01307
G1 X114.801 Y107.75 E.00474
G1 X116.647 Y107.75 E.02371
; stop printing object box_small.stl id:6422194856871735347 copy 0
;LAYER_CHANGE
;Z:3.13
;HEIGHT:0.18
;BEFORE_LAYER_CHANGE
;3.13
G92 E0

G1 E-4.325 F2100
;WIPE_START
M73 P44 R1
G1 F2400
G1 X116.447 Y107.75 E-.175
;WIPE_END
;_SET_FAN_SPEED_CHANGING_LAYER
; printing object box_small.stl id:6422194856871735347 copy 0
G1 X116.691 Y107.75 Z3.13 F7200
G1 E4.5 F2100
G1 F600
G1 X114.846 Y107.75 E.02371
G1 X114.228 Y108.453 E.01203
G1 X113.485 Y109.12 E.01282
G1 X112.743 Y109.657 E.01178
G1 X112 Y110.1 E.01111
G1 X111.257 Y110.472 E.01067
G1 X110.515 Y110.791 E.01038
G1 X109.03 Y111.298 E.02016
M73 P45 R1
G1 X108.287 Y111.485 E.00984
G1 X107.545 Y111.598 E.00965
G1 X107.25 Y111.574 E.0038
G1 X107.25 Y116.389 E.06187
G1 X107.665 Y117.25 E.01228
G1 X109.51 Y117.25 E.02371
; stop printing object box_small.stl id:6422194856871735347 copy 0
;LAYER_CHANGE
;Z:3.31
;HEIGHT:0.18
;BEFORE_LAYER_CHANGE
;3.31
