; HEADER_BLOCK_START
; generated by OrcaSlicer 2.0.0 on 2024-04-26 at 15:46:57
; total layer number: 166
; filament_density: 1.24
; filament_diameter: 2.85
; max_z_height: 29.95
; HEADER_BLOCK_END

; THUMBNAIL_BLOCK_START

;
; THUMBNAIL_BLOCK_END

; external perimeters extrusion width = 0.40mm
; perimeters extrusion width = 0.45mm
; infill extrusion width = 0.50mm
; solid infill extrusion width = 0.45mm
; top infill extrusion width = 0.40mm
; first layer extrusion width = 0.45mm

; EXECUTABLE_BLOCK_START
M73 P0 R30
M201 X3000 Y3000 Z500 E10000
M203 X500 Y500 Z12 E120
M204 P1500 R1500 T1500
M205 X20.00 Y20.00 Z0.40 E2.50 ; sets the jerk limits, mm/sec
;TYPE:Custom
; # # # # # # START Header
G21; metric values
G90; absolute positioning
M82 ; set extruder to absolute mode
M107; start with the fan off

M140 S60; start bed heating

G28 X0 Y0 Z0; move X/Y/Z to endstops
G1 X1 Y6 F15000; move X/Y to start position
G1 Z35 F9000; move Z to start position

; Wait for bed and nozzle temperatures
M190 S55; wait for bed temperature - 5
M140 S60; continue bed heating
M109 S200; wait for nozzle temperature

; Purge and prime
M83; set extruder to relative mode
G92 E0; reset extrusion distance
G0 X0 Y1 F10000
G1 F150 E20 ; compress the bowden tube
G1 E-8 F1200
G0 X30 Y1 F5000
G0 F1200 Z0.125; Cut the connection to priming blob
G0 X100 F10000; disconnect with the prime blob
G0 X50; Avoid the metal clip holding the Ultimaker glass plate
G0 Z0.2 F720
G1 E8 F1200
G1 X80 E3 F1000; intro line 1
G1 X110 E4 F1000 ; intro line 2
G1 X140 F600; drag filament to decompress bowden tube
G1 X100 F3200; wipe backwards a bit
G1 X150 F3200; back to where there is no plastic: avoid dragging
G92 E0; reset extruder reference
M82; set extruder to absolute mode

; # # # # # # END Header
G90
G21
M83 ; use relative distances for extrusion
; filament start gcode
M106 S0
;LAYER_CHANGE
;Z:0.25
;HEIGHT:0.25
;BEFORE_LAYER_CHANGE
;0.25
G92 E0

G1 E-4.5 F2100
;_SET_FAN_SPEED_CHANGING_LAYER
; printing object box.stl id:28552639593538928 copy 0
G1 X98.827 Y97.758 F7200
G1 Z.25 F3600
G1 E4.5 F2100
;TYPE:Sparse infill
;WIDTH:0.45
M73 P1 R30
G1 F900
G1 X97.258 Y97.758 E.02406
G1 X97.258 Y98.033 E.00423
G1 X97.6 Y98.392 E.0076
G1 X97.908 Y99.134 E.01232
G1 X97.894 Y99.877 E.01139
G1 X97.728 Y100.248 E.00623
G1 X97.258 Y100.777 E.01085
G1 X97.258 Y103.974 E.04901
G1 X97.6 Y104.332 E.0076
G1 X97.908 Y105.075 E.01232
G1 X97.894 Y105.817 E.01139
G1 X97.728 Y106.188 E.00623
G1 X97.258 Y106.717 E.01085
G1 X97.258 Y109.914 E.04901
G1 X97.6 Y110.272 E.0076
G1 X97.908 Y111.015 E.01232
G1 X97.894 Y111.757 E.01139
G1 X97.728 Y112.129 E.00623
G1 X97.258 Y112.658 E.01085
G1 X97.258 Y115.854 E.04901
G1 X97.6 Y116.213 E.0076
G1 X97.908 Y116.955 E.01232
G1 X97.894 Y117.698 E.01139
G1 X97.728 Y118.069 E.00623
G1 X97.258 Y118.598 E.01085
G1 X97.258 Y121.795 E.04901
G1 X97.6 Y122.153 E.0076
G1 X97.908 Y122.896 E.01232
G1 X97.894 Y123.638 E.01139
G1 X97.728 Y124.009 E.00623
G1 X97.258 Y124.538 E.01085
G1 X97.258 Y127.242 E.04145
G1 X100.275 Y127.242 E.04626
G1 X99.668 Y126.608 E.01345
G1 X99.36 Y125.866 E.01232
G1 X99.375 Y125.123 E.01139
G1 X99.541 Y124.752 E.00623
G1 X99.86 Y124.381 E.00751
G1 X100.57 Y123.638 E.01575
G1 X100.879 Y122.896 E.01232
G1 X100.864 Y122.153 E.01139
G1 X100.698 Y121.782 E.00623
G1 X100.379 Y121.411 E.00751
G1 X99.668 Y120.668 E.01575
G1 X99.36 Y119.925 E.01232
G1 X99.375 Y119.183 E.01139
G1 X99.541 Y118.812 E.00623
G1 X99.86 Y118.44 E.00751
G1 X100.57 Y117.698 E.01575
G1 X100.879 Y116.955 E.01232
G1 X100.864 Y116.213 E.01139
G1 X100.698 Y115.841 E.00623
G1 X100.379 Y115.47 E.00751
G1 X99.668 Y114.728 E.01575
G1 X99.36 Y113.985 E.01232
G1 X99.375 Y113.243 E.01139
G1 X99.541 Y112.871 E.00623
G1 X99.86 Y112.5 E.00751
G1 X100.57 Y111.757 E.01575
G1 X100.879 Y111.015 E.01232
G1 X100.864 Y110.272 E.01139
G1 X100.698 Y109.901 E.00623
G1 X100.379 Y109.53 E.00751
G1 X99.668 Y108.787 E.01575
G1 X99.36 Y108.045 E.01232
G1 X99.375 Y107.302 E.01139
G1 X99.541 Y106.931 E.00623
G1 X99.86 Y106.56 E.00751
G1 X100.57 Y105.817 E.01575
G1 X100.879 Y105.075 E.01232
G1 X100.864 Y104.332 E.01139
G1 X100.698 Y103.961 E.00623
G1 X100.379 Y103.59 E.00751
G1 X99.668 Y102.847 E.01575
G1 X99.36 Y102.104 E.01232
G1 X99.375 Y101.362 E.01139
G1 X99.541 Y100.991 E.00623
G1 X99.86 Y100.619 E.00751
G1 X100.57 Y99.877 E.01575
G1 X100.879 Y99.134 E.01232
G1 X100.864 Y98.392 E.01139
G1 X100.698 Y98.02 E.00623
G1 X100.472 Y97.758 E.00532
G1 X102.934 Y97.758 E.03775
G1 X103.541 Y98.392 E.01346
G1 X103.849 Y99.134 E.01232
G1 X103.834 Y99.877 E.01139
G1 X103.668 Y100.248 E.00623
G1 X103.349 Y100.619 E.00751
G1 X102.638 Y101.362 E.01575
G1 X102.33 Y102.104 E.01232
G1 X102.345 Y102.847 E.01139
G1 X102.511 Y103.218 E.00623
G1 X102.83 Y103.59 E.00751
G1 X103.541 Y104.332 E.01575
G1 X103.849 Y105.075 E.01232
G1 X103.834 Y105.817 E.01139
G1 X103.668 Y106.188 E.00623
G1 X103.349 Y106.56 E.00751
G1 X102.638 Y107.302 E.01575
G1 X102.33 Y108.045 E.01232
G1 X102.345 Y108.787 E.01139
G1 X102.511 Y109.159 E.00623
G1 X102.83 Y109.53 E.00751
G1 X103.541 Y110.272 E.01575
G1 X103.849 Y111.015 E.01232
G1 X103.834 Y111.757 E.01139
G1 X103.668 Y112.129 E.00623
G1 X103.349 Y112.5 E.00751
G1 X102.638 Y113.243 E.01575
G1 X102.33 Y113.985 E.01232
G1 X102.345 Y114.728 E.01139
G1 X102.511 Y115.099 E.00623
G1 X102.83 Y115.47 E.00751
G1 X103.541 Y116.213 E.01575
G1 X103.849 Y116.955 E.01232
G1 X103.834 Y117.698 E.01139
G1 X103.668 Y118.069 E.00623
G1 X103.349 Y118.44 E.00751
G1 X102.638 Y119.183 E.01575
G1 X102.33 Y119.925 E.01232
G1 X102.345 Y120.668 E.01139
G1 X102.511 Y121.039 E.00623
G1 X102.83 Y121.411 E.00751
G1 X103.541 Y122.153 E.01575
G1 X103.849 Y122.896 E.01232
G1 X103.834 Y123.638 E.01139
G1 X103.668 Y124.009 E.00623
G1 X103.349 Y124.381 E.00751
G1 X102.638 Y125.123 E.01575
G1 X102.33 Y125.866 E.01232
G1 X102.345 Y126.608 E.01139
G1 X102.511 Y126.98 E.00623
G1 X102.737 Y127.242 E.00532
G1 X106.215 Y127.242 E.05332
G1 X105.609 Y126.608 E.01345
G1 X105.3 Y125.866 E.01232
G1 X105.315 Y125.123 E.01139
G1 X105.481 Y124.752 E.00623
G1 X105.8 Y124.381 E.00751
G1 X106.511 Y123.638 E.01575
G1 X106.819 Y122.896 E.01232
G1 X106.804 Y122.153 E.01139
G1 X106.638 Y121.782 E.00623
G1 X106.319 Y121.411 E.00751
G1 X105.609 Y120.668 E.01575
G1 X105.3 Y119.925 E.01232
G1 X105.315 Y119.183 E.01139
G1 X105.481 Y118.812 E.00623
G1 X105.8 Y118.44 E.00751
G1 X106.511 Y117.698 E.01575
G1 X106.819 Y116.955 E.01232
G1 X106.804 Y116.213 E.01139
G1 X106.638 Y115.841 E.00623
G1 X106.319 Y115.47 E.00751
G1 X105.609 Y114.728 E.01575
G1 X105.3 Y113.985 E.01232
G1 X105.315 Y113.243 E.01139
G1 X105.481 Y112.871 E.00623
G1 X105.8 Y112.5 E.00751
G1 X106.511 Y111.757 E.01575
G1 X106.819 Y111.015 E.01232
G1 X106.804 Y110.272 E.01139
G1 X106.638 Y109.901 E.00623
G1 X106.319 Y109.53 E.00751
G1 X105.609 Y108.787 E.01575
G1 X105.3 Y108.045 E.01232
G1 X105.315 Y107.302 E.01139
G1 X105.481 Y106.931 E.00623
G1 X105.8 Y106.56 E.00751
G1 X106.511 Y105.817 E.01575
G1 X106.819 Y105.075 E.01232
G1 X106.804 Y104.332 E.01139
G1 X106.638 Y103.961 E.00623
G1 X106.319 Y103.59 E.00751
G1 X105.609 Y102.847 E.01575
G1 X105.3 Y102.104 E.01232
G1 X105.315 Y101.362 E.01139
G1 X105.481 Y100.991 E.00623
G1 X105.8 Y100.619 E.00751
G1 X106.511 Y99.877 E.01575
G1 X106.819 Y99.134 E.01232
G1 X106.804 Y98.392 E.01139
G1 X106.638 Y98.02 E.00623
G1 X106.412 Y97.758 E.00532
G1 X108.874 Y97.758 E.03775
G1 X109.481 Y98.392 E.01346
G1 X109.789 Y99.134 E.01232
G1 X109.774 Y99.877 E.01139
G1 X109.609 Y100.248 E.00623
G1 X109.289 Y100.619 E.00751
G1 X108.579 Y101.362 E.01575
G1 X108.271 Y102.104 E.01232
G1 X108.285 Y102.847 E.01139
G1 X108.451 Y103.218 E.00623
G1 X108.771 Y103.59 E.00751
G1 X109.481 Y104.332 E.01575
G1 X109.789 Y105.075 E.01232
G1 X109.774 Y105.817 E.01139
G1 X109.609 Y106.188 E.00623
G1 X109.289 Y106.56 E.00751
G1 X108.579 Y107.302 E.01575
G1 X108.271 Y108.045 E.01232
G1 X108.285 Y108.787 E.01139
G1 X108.451 Y109.159 E.00623
G1 X108.771 Y109.53 E.00751
G1 X109.481 Y110.272 E.01575
G1 X109.789 Y111.015 E.01232
G1 X109.774 Y111.757 E.01139
G1 X109.609 Y112.129 E.00623
G1 X109.289 Y112.5 E.00751
G1 X108.579 Y113.243 E.01575
G1 X108.271 Y113.985 E.01232
G1 X108.285 Y114.728 E.01139
G1 X108.451 Y115.099 E.00623
G1 X108.771 Y115.47 E.00751
G1 X109.481 Y116.213 E.01575
G1 X109.789 Y116.955 E.01232
G1 X109.774 Y117.698 E.01139
M73 P2 R30
G1 X109.609 Y118.069 E.00623
G1 X109.289 Y118.44 E.00751
G1 X108.579 Y119.183 E.01575
G1 X108.271 Y119.925 E.01232
G1 X108.285 Y120.668 E.01139
G1 X108.451 Y121.039 E.00623
G1 X108.771 Y121.411 E.00751
G1 X109.481 Y122.153 E.01575
G1 X109.789 Y122.896 E.01232
G1 X109.774 Y123.638 E.01139
G1 X109.609 Y124.009 E.00623
G1 X109.289 Y124.381 E.00751
G1 X108.579 Y125.123 E.01575
G1 X108.271 Y125.866 E.01232
G1 X108.285 Y126.608 E.01139
G1 X108.451 Y126.98 E.00623
G1 X108.677 Y127.242 E.00532
G1 X112.156 Y127.242 E.05332
G1 X111.549 Y126.608 E.01345
G1 X111.241 Y125.866 E.01232
G1 X111.256 Y125.123 E.01139
G1 X111.421 Y124.752 E.00623
G1 X111.741 Y124.381 E.00751
G1 X112.451 Y123.638 E.01575
G1 X112.759 Y122.896 E.01232
G1 X112.744 Y122.153 E.01139
G1 X112.579 Y121.782 E.00623
G1 X112.259 Y121.411 E.00751
G1 X111.549 Y120.668 E.01575
G1 X111.241 Y119.925 E.01232
G1 X111.256 Y119.183 E.01139
G1 X111.421 Y118.812 E.00623
G1 X111.741 Y118.44 E.00751
G1 X112.451 Y117.698 E.01575
G1 X112.759 Y116.955 E.01232
G1 X112.744 Y116.213 E.01139
G1 X112.579 Y115.841 E.00623
G1 X112.259 Y115.47 E.00751
G1 X111.549 Y114.728 E.01575
G1 X111.241 Y113.985 E.01232
G1 X111.256 Y113.243 E.01139
G1 X111.421 Y112.871 E.00623
G1 X111.741 Y112.5 E.00751
G1 X112.451 Y111.757 E.01575
G1 X112.759 Y111.015 E.01232
G1 X112.744 Y110.272 E.01139
G1 X112.579 Y109.901 E.00623
G1 X112.259 Y109.53 E.00751
G1 X111.549 Y108.787 E.01575
G1 X111.241 Y108.045 E.01232
G1 X111.256 Y107.302 E.01139
G1 X111.421 Y106.931 E.00623
G1 X111.741 Y106.56 E.00751
G1 X112.451 Y105.817 E.01575
G1 X112.759 Y105.075 E.01232
G1 X112.744 Y104.332 E.01139
G1 X112.579 Y103.961 E.00623
G1 X112.259 Y103.59 E.00751
G1 X111.549 Y102.847 E.01575
G1 X111.241 Y102.104 E.01232
G1 X111.256 Y101.362 E.01139
G1 X111.421 Y100.991 E.00623
G1 X111.741 Y100.619 E.00751
G1 X112.451 Y99.877 E.01575
G1 X112.759 Y99.134 E.01232
G1 X112.744 Y98.392 E.01139
G1 X112.579 Y98.02 E.00623
G1 X112.352 Y97.758 E.00532
G1 X114.815 Y97.758 E.03775
G1 X115.421 Y98.392 E.01346
G1 X115.729 Y99.134 E.01232
G1 X115.715 Y99.877 E.01139
G1 X115.549 Y100.248 E.00623
G1 X115.229 Y100.619 E.00751
G1 X114.519 Y101.362 E.01575
G1 X114.211 Y102.104 E.01232
G1 X114.226 Y102.847 E.01139
G1 X114.391 Y103.218 E.00623
G1 X114.711 Y103.59 E.00751
G1 X115.421 Y104.332 E.01575
G1 X115.729 Y105.075 E.01232
G1 X115.715 Y105.817 E.01139
G1 X115.549 Y106.188 E.00623
G1 X115.229 Y106.56 E.00751
G1 X114.519 Y107.302 E.01575
G1 X114.211 Y108.045 E.01232
G1 X114.226 Y108.787 E.01139
G1 X114.391 Y109.159 E.00623
G1 X114.711 Y109.53 E.00751
G1 X115.421 Y110.272 E.01575
G1 X115.729 Y111.015 E.01232
G1 X115.715 Y111.757 E.01139
G1 X115.549 Y112.129 E.00623
G1 X115.229 Y112.5 E.00751
G1 X114.519 Y113.243 E.01575
G1 X114.211 Y113.985 E.01232
G1 X114.226 Y114.728 E.01139
G1 X114.391 Y115.099 E.00623
G1 X114.711 Y115.47 E.00751
G1 X115.421 Y116.213 E.01575
G1 X115.729 Y116.955 E.01232
G1 X115.715 Y117.698 E.01139
G1 X115.549 Y118.069 E.00623
G1 X115.229 Y118.44 E.00751
G1 X114.519 Y119.183 E.01575
G1 X114.211 Y119.925 E.01232
G1 X114.226 Y120.668 E.01139
G1 X114.391 Y121.039 E.00623
G1 X114.711 Y121.411 E.00751
G1 X115.421 Y122.153 E.01575
G1 X115.729 Y122.896 E.01232
G1 X115.715 Y123.638 E.01139
G1 X115.549 Y124.009 E.00623
G1 X115.229 Y124.381 E.00751
G1 X114.519 Y125.123 E.01575
G1 X114.211 Y125.866 E.01232
G1 X114.226 Y126.608 E.01139
G1 X114.391 Y126.98 E.00623
G1 X114.618 Y127.242 E.00532
G1 X118.096 Y127.242 E.05332
G1 X117.489 Y126.608 E.01345
G1 X117.181 Y125.866 E.01232
G1 X117.196 Y125.123 E.01139
G1 X117.362 Y124.752 E.00623
G1 X117.681 Y124.381 E.00751
G1 X118.391 Y123.638 E.01575
G1 X118.7 Y122.896 E.01232
G1 X118.685 Y122.153 E.01139
G1 X118.519 Y121.782 E.00623
G1 X118.2 Y121.411 E.00751
G1 X117.489 Y120.668 E.01575
G1 X117.181 Y119.925 E.01232
G1 X117.196 Y119.183 E.01139
G1 X117.362 Y118.812 E.00623
G1 X117.681 Y118.44 E.00751
G1 X118.391 Y117.698 E.01575
G1 X118.7 Y116.955 E.01232
G1 X118.685 Y116.213 E.01139
G1 X118.519 Y115.841 E.00623
G1 X118.2 Y115.47 E.00751
G1 X117.489 Y114.728 E.01575
G1 X117.181 Y113.985 E.01232
G1 X117.196 Y113.243 E.01139
G1 X117.362 Y112.871 E.00623
G1 X117.681 Y112.5 E.00751
G1 X118.391 Y111.757 E.01575
G1 X118.7 Y111.015 E.01232
G1 X118.685 Y110.272 E.01139
G1 X118.519 Y109.901 E.00623
G1 X118.2 Y109.53 E.00751
G1 X117.489 Y108.787 E.01575
G1 X117.181 Y108.045 E.01232
G1 X117.196 Y107.302 E.01139
G1 X117.362 Y106.931 E.00623
G1 X117.681 Y106.56 E.00751
G1 X118.391 Y105.817 E.01575
G1 X118.7 Y105.075 E.01232
G1 X118.685 Y104.332 E.01139
G1 X118.519 Y103.961 E.00623
G1 X118.2 Y103.59 E.00751
G1 X117.489 Y102.847 E.01575
G1 X117.181 Y102.104 E.01232
G1 X117.196 Y101.362 E.01139
G1 X117.362 Y100.991 E.00623
G1 X117.681 Y100.619 E.00751
G1 X118.391 Y99.877 E.01575
G1 X118.7 Y99.134 E.01232
G1 X118.685 Y98.392 E.01139
G1 X118.519 Y98.02 E.00623
G1 X118.293 Y97.758 E.00532
G1 X120.755 Y97.758 E.03775
G1 X121.362 Y98.392 E.01346
G1 X121.67 Y99.134 E.01232
G1 X121.655 Y99.877 E.01139
G1 X121.489 Y100.248 E.00623
G1 X121.17 Y100.619 E.00751
G1 X120.459 Y101.362 E.01575
G1 X120.151 Y102.104 E.01232
G1 X120.166 Y102.847 E.01139
G1 X120.332 Y103.218 E.00623
G1 X120.651 Y103.59 E.00751
G1 X121.362 Y104.332 E.01575
M73 P2 R29
G1 X121.67 Y105.075 E.01232
G1 X121.655 Y105.817 E.01139
G1 X121.489 Y106.188 E.00623
G1 X121.17 Y106.56 E.00751
G1 X120.459 Y107.302 E.01575
G1 X120.151 Y108.045 E.01232
G1 X120.166 Y108.787 E.01139
G1 X120.332 Y109.159 E.00623
G1 X120.651 Y109.53 E.00751
G1 X121.362 Y110.272 E.01575
G1 X121.67 Y111.015 E.01232
G1 X121.655 Y111.757 E.01139
G1 X121.489 Y112.129 E.00623
G1 X121.17 Y112.5 E.00751
G1 X120.459 Y113.243 E.01575
G1 X120.151 Y113.985 E.01232
G1 X120.166 Y114.728 E.01139
G1 X120.332 Y115.099 E.00623
G1 X120.651 Y115.47 E.00751
G1 X121.362 Y116.213 E.01575
G1 X121.67 Y116.955 E.01232
G1 X121.655 Y117.698 E.01139
G1 X121.489 Y118.069 E.00623
G1 X121.17 Y118.44 E.00751
G1 X120.459 Y119.183 E.01575
G1 X120.151 Y119.925 E.01232
G1 X120.166 Y120.668 E.01139
G1 X120.332 Y121.039 E.00623
G1 X120.651 Y121.411 E.00751
G1 X121.362 Y122.153 E.01575
G1 X121.67 Y122.896 E.01232
G1 X121.655 Y123.638 E.01139
G1 X121.489 Y124.009 E.00623
G1 X121.17 Y124.381 E.00751
G1 X120.459 Y125.123 E.01575
G1 X120.151 Y125.866 E.01232
G1 X120.166 Y126.608 E.01139
G1 X120.332 Y126.98 E.00623
G1 X120.558 Y127.242 E.00532
G1 X122.404 Y127.242 E.02829
G1 E-4.03333 F2100
;WIPE_START
G1 F900
G1 X122.204 Y127.242 E-.46667
;WIPE_END
G1 X126.742 Y99.158 F3600
G1 E4.5 F2100
G1 F900
G1 X126.742 Y101.004 E.02829
G1 X126.4 Y101.362 E.0076
G1 X126.092 Y102.104 E.01232
G1 X126.106 Y102.847 E.01139
G1 X126.272 Y103.218 E.00623
G1 X126.742 Y103.755 E.01094
G1 X126.742 Y106.944 E.04889
G1 X126.4 Y107.302 E.0076
G1 X126.092 Y108.045 E.01232
G1 X126.106 Y108.787 E.01139
G1 X126.272 Y109.159 E.00623
G1 X126.742 Y109.695 E.01094
G1 X126.742 Y112.884 E.04889
G1 X126.4 Y113.243 E.0076
G1 X126.092 Y113.985 E.01232
G1 X126.106 Y114.728 E.01139
G1 X126.272 Y115.099 E.00623
G1 X126.742 Y115.636 E.01094
G1 X126.742 Y118.825 E.04889
G1 X126.4 Y119.183 E.0076
G1 X126.092 Y119.925 E.01232
G1 X126.106 Y120.668 E.01139
G1 X126.272 Y121.039 E.00623
G1 X126.742 Y121.576 E.01094
G1 X126.742 Y124.765 E.04889
G1 X126.4 Y125.123 E.0076
G1 X126.092 Y125.866 E.01232
G1 X126.106 Y126.608 E.01139
G1 X126.272 Y126.98 E.00623
G1 X126.498 Y127.242 E.00532
G1 X124.036 Y127.242 E.03775
G1 X123.43 Y126.608 E.01345
G1 X123.121 Y125.866 E.01232
G1 X123.136 Y125.123 E.01139
G1 X123.302 Y124.752 E.00623
G1 X123.621 Y124.381 E.00751
G1 X124.332 Y123.638 E.01575
G1 X124.64 Y122.896 E.01232
G1 X124.625 Y122.153 E.01139
G1 X124.459 Y121.782 E.00623
G1 X124.14 Y121.411 E.00751
