; HEADER_BLOCK_START
; generated by OrcaSlicer 2.0.0 on 2024-04-15 at 20:46:36
; total layer number: 112
; filament_density: 1.24
; filament_diameter: 2.85
; max_z_height: 20.41
; HEADER_BLOCK_END

; THUMBNAIL_BLOCK_START

;
; THUMBNAIL_BLOCK_END

; external perimeters extrusion width = 0.40mm
; perimeters extrusion width = 0.45mm
; infill extrusion width = 0.50mm
; solid infill extrusion width = 0.45mm
; top infill extrusion width = 0.40mm
; first layer extrusion width = 0.45mm

; EXECUTABLE_BLOCK_START
M73 P0 R8
M201 X3000 Y3000 Z500 E10000
M203 X500 Y500 Z12 E120
M204 P1500 R1500 T1500
M205 X20.00 Y20.00 Z0.40 E2.50 ; sets the jerk limits, mm/sec
;TYPE:Custom
; # # # # # # START Header
G21; metric values
G90; absolute positioning
M82 ; set extruder to absolute mode
M107; start with the fan off

M140 S60; start bed heating

G28 X0 Y0 Z0; move X/Y/Z to endstops
G1 X1 Y6 F15000; move X/Y to start position
G1 Z35 F9000; move Z to start position

; Wait for bed and nozzle temperatures
M190 S55; wait for bed temperature - 5
M140 S60; continue bed heating
M109 S200; wait for nozzle temperature

; Purge and prime
M83; set extruder to relative mode
G92 E0; reset extrusion distance
G0 X0 Y1 F10000
G1 F150 E20 ; compress the bowden tube
G1 E-8 F1200
G0 X30 Y1 F5000
G0 F1200 Z0.125; Cut the connection to priming blob
G0 X100 F10000; disconnect with the prime blob
G0 X50; Avoid the metal clip holding the Ultimaker glass plate
G0 Z0.2 F720
G1 E8 F1200
M73 P2 R7
G1 X80 E3 F1000; intro line 1
G1 X110 E4 F1000 ; intro line 2
G1 X140 F600; drag filament to decompress bowden tube
M73 P3 R7
G1 X100 F3200; wipe backwards a bit
G1 X150 F3200; back to where there is no plastic: avoid dragging
G92 E0; reset extruder reference
M82; set extruder to absolute mode

; # # # # # # END Header
G90
G21
M83 ; use relative distances for extrusion
; filament start gcode
M106 S0
;LAYER_CHANGE
;Z:0.25
;HEIGHT:0.25
;BEFORE_LAYER_CHANGE
;0.25
G92 E0

G1 E-4.5 F2100
;_SET_FAN_SPEED_CHANGING_LAYER
G1 X106.406 Y106.178 F7200
G1 Z.25 F3600
G1 E4.5 F2100
;TYPE:Skirt
;WIDTH:0.45
M73 P4 R7
G1 F1708
G1 X107.724 Y105.223 E.02496
G1 X109.283 Y104.508 E.02629
M73 P5 R7
G1 X110.81 Y104.142 E.02407
G1 X112.384 Y104.066 E.02415
G1 X113.969 Y104.291 E.02455
G1 X115.559 Y104.845 E.02582
G1 X117.059 Y105.745 E.02682
G1 X118.248 Y106.823 E.0246
G1 X119.203 Y108.103 E.02448
G1 X119.879 Y109.471 E.0234
G1 X120.316 Y111.052 E.02515
G1 X120.438 Y112.791 E.02672
G1 X120.263 Y114.221 E.02208
G1 X119.761 Y115.822 E.02573
G1 X118.884 Y117.387 E.02749
G1 X117.841 Y118.589 E.02441
G1 X116.525 Y119.626 E.02567
G1 X114.94 Y120.413 E.02714
G1 X113.168 Y120.858 E.02801
G1 X111.616 Y120.93 E.02381
G1 X110.057 Y120.714 E.02412
G1 X109.226 Y120.472 E.01327
G1 X108.283 Y120.077 E.01568
G1 X107.009 Y119.307 E.02281
G1 X105.674 Y118.088 E.02772
G1 X104.686 Y116.712 E.02597
G1 X104.059 Y115.358 E.02288
G1 X103.651 Y113.755 E.02534
G1 X103.572 Y112.027 E.02652
G1 X103.799 Y110.496 E.02373
G1 X104.353 Y108.924 E.02555
G1 X105.242 Y107.443 E.02649
G1 X106.379 Y106.207 E.02573
G1 X106.661 Y106.482 F3600
G1 F1708
G1 X107.925 Y105.565 E.02394
G1 X109.418 Y104.881 E.02519
G1 X110.877 Y104.533 E.02299
G1 X112.376 Y104.462 E.023
G1 X113.887 Y104.678 E.0234
G1 X115.402 Y105.209 E.02462
G1 X116.829 Y106.067 E.02553
G1 X117.951 Y107.085 E.02322
G1 X118.867 Y108.312 E.02347
G1 X119.505 Y109.604 E.02209
G1 X119.925 Y111.115 E.02405
G1 X120.041 Y112.784 E.02565
G1 X119.874 Y114.145 E.02101
G1 X119.393 Y115.675 E.02459
G1 X118.566 Y117.15 E.02592
G1 X117.574 Y118.296 E.02325
G1 X116.315 Y119.29 E.02457
G1 X114.803 Y120.042 E.02589
G1 X113.123 Y120.464 E.02655
G1 X111.644 Y120.535 E.0227
G1 X110.158 Y120.33 E.023
G1 X109.365 Y120.101 E.01265
G1 X108.448 Y119.717 E.01524
G1 X107.234 Y118.981 E.02178
G1 X105.965 Y117.819 E.02638
G1 X105.026 Y116.508 E.02471
G1 X104.434 Y115.23 E.0216
G1 X104.044 Y113.704 E.02414
G1 X103.968 Y112.043 E.02549
G1 X104.185 Y110.584 E.0226
G1 X104.715 Y109.085 E.02439
G1 X105.555 Y107.687 E.025
G1 X106.634 Y106.511 E.02446
; printing object dropvase1.stl id:309237645384 copy 0
M73 P6 R7
G1 E-4.36 F2100
;WIPE_START
G1 F3000
G1 X106.795 Y106.393 E-.14
;WIPE_END
G1 X115.548 Y115.122 F3600
G1 E4.5 F2100
;TYPE:Outer wall
;WIDTH:0.449999
G1 F900
G1 X115.122 Y115.631 E.01018
G1 X114.554 Y116.104 E.01133
G1 X113.974 Y116.458 E.01042
G1 X113.123 Y116.78 E.01394
G1 X112.295 Y116.913 E.01287
G1 X111.481 Y116.892 E.01247
G1 X110.627 Y116.706 E.01341
G1 X109.972 Y116.432 E.01089
G1 X109.297 Y116.004 E.01225
G1 X108.624 Y115.36 E.01427
G1 X108.323 Y114.963 E.00764
G1 X107.975 Y114.341 E.01093
G1 X107.774 Y113.802 E.00881
G1 X107.6 Y112.961 E.01317
G1 X107.587 Y112.189 E.01183
G1 X107.652 Y111.669 E.00804
G1 X107.906 Y110.825 E.01351
G1 X108.206 Y110.225 E.01028
G1 X108.491 Y109.829 E.00748
G1 X108.856 Y109.394 E.00871
G1 X109.363 Y108.947 E.01036
G1 X110.147 Y108.483 E.01397
G1 X110.643 Y108.289 E.00816
G1 X111.283 Y108.148 E.01004
G1 X111.885 Y108.074 E.0093
G1 X112.706 Y108.13 E.01261
G1 X113.305 Y108.289 E.0095
G1 X113.954 Y108.528 E.01061
G1 X114.393 Y108.778 E.00773
G1 X114.847 Y109.13 E.00882
G1 X115.238 Y109.484 E.00807
G1 X115.655 Y110.005 E.01024
G1 X115.969 Y110.547 E.0096
G1 X116.241 Y111.254 E.01161
G1 X116.379 Y111.913 E.01033
G1 X116.42 Y112.712 E.01227
G1 X116.321 Y113.44 E.01126
G1 X116.034 Y114.319 E.01419
G1 X115.655 Y114.995 E.01188
G1 X115.574 Y115.091 E.00192
; stop printing object dropvase1.stl id:309237645384 copy 0
M106 S255
;LAYER_CHANGE
;Z:0.43
;HEIGHT:0.18
;BEFORE_LAYER_CHANGE
;0.43
G92 E0

G1 E-4.03333 F2100
;WIPE_START
G1 F900
G1 X115.446 Y115.245 E-.46667
;WIPE_END
;_SET_FAN_SPEED_CHANGING_LAYER
M104 S205 ; set nozzle temperature
; printing object dropvase1.stl id:309237645384 copy 0
G1 X115.782 Y115.352 Z.43 F7200
G1 E4.5 F2100
;WIDTH:0.399999
G1 F600
G1 X115.436 Y115.774 E.00549
G1 X115.033 Y116.151 E.00555
G1 X114.586 Y116.481 E.00559
G1 X113.991 Y116.815 E.00687
G1 X113.133 Y117.116 E.00915
G1 X112.297 Y117.242 E.00851
G1 X111.477 Y117.223 E.00825
G1 X110.633 Y117.053 E.00866
G1 X109.955 Y116.79 E.00732
G1 X109.274 Y116.393 E.00793
G1 X108.596 Y115.818 E.00895
G1 X108.113 Y115.221 E.00773
G1 X107.756 Y114.611 E.00711
G1 X107.495 Y113.987 E.00681
G1 X107.355 Y113.472 E.00537
G1 X107.271 Y112.912 E.0057
G1 X107.256 Y112.201 E.00716
G1 X107.373 Y111.414 E.00801
G1 X107.538 Y110.863 E.00579
G1 X107.941 Y110.025 E.00936
G1 X108.493 Y109.292 E.00923
G1 X108.848 Y108.942 E.00502
G1 X109.271 Y108.606 E.00544
G1 X109.954 Y108.207 E.00796
G1 X110.633 Y107.948 E.00731
G1 X111.28 Y107.814 E.00665
G1 X111.885 Y107.745 E.00613
G1 X112.712 Y107.799 E.00834
G1 X113.319 Y107.95 E.00629
G1 X113.798 Y108.104 E.00506
G1 X114.415 Y108.403 E.0069
M73 P7 R7
G1 X114.843 Y108.69 E.00519
G1 X115.265 Y109.045 E.00555
G1 X115.792 Y109.637 E.00798
G1 X116.096 Y110.087 E.00547
G1 X116.34 Y110.57 E.00545
G1 X116.554 Y111.142 E.00615
G1 X116.708 Y111.93 E.00808
G1 X116.746 Y112.699 E.00775
G1 X116.696 Y113.209 E.00516
G1 X116.503 Y114.024 E.00843
G1 X116.096 Y114.915 E.00986
G1 X115.806 Y115.321 E.00502
; stop printing object dropvase1.stl id:309237645384 copy 0
;LAYER_CHANGE
;Z:0.61
;HEIGHT:0.18
;BEFORE_LAYER_CHANGE
;0.61
G92 E0

G1 E-3.98859 F2100
;WIPE_START
G1 F821.255
G1 X115.68 Y115.476 E-.51141
;WIPE_END
;_SET_FAN_SPEED_CHANGING_LAYER
; printing object dropvase1.stl id:309237645384 copy 0
G1 X115.845 Y115.436 Z.61 F7200
G1 E4.5 F2100
;WIDTH:0.688696
G1 F600
M106 S255
G1 X115.582 Y115.761 E.00757
G1 X115.178 Y116.156 E.01023
;WIDTH:0.687828
G1 X114.737 Y116.504 E.01016
;WIDTH:0.673212
G1 X114.184 Y116.823 E.01128
;WIDTH:0.67959
G1 X113.517 Y117.102 E.01291
;WIDTH:0.689322
G1 X112.692 Y117.293 E.01535
G1 X112.149 Y117.345 E.00988
;WIDTH:0.65003
G1 X111.594 Y117.329 E.00945
;WIDTH:0.691934
G1 X111.084 Y117.255 E.00938
;WIDTH:0.69285
G1 X110.342 Y117.046 E.01404
G1 X109.674 Y116.752 E.0133
;WIDTH:0.686582
G1 X109.203 Y116.453 E.01007
G1 X108.581 Y115.932 E.01464
;WIDTH:0.675204
G1 X108.237 Y115.542 E.00922
;WIDTH:0.683124
G1 X107.73 Y114.796 E.01619
G1 X107.47 Y114.224 E.01128
;WIDTH:0.682008
G1 X107.241 Y113.422 E.01494
;WIDTH:0.687298
G1 X107.174 Y112.929 E.00899
G1 X107.148 Y112.393 E.00969
;WIDTH:0.666766
G1 X107.203 Y111.796 E.01049
;WIDTH:0.670454
G1 X107.31 Y111.284 E.0092
;WIDTH:0.675698
G1 X107.466 Y110.806 E.00892
;WIDTH:0.677258
G1 X107.794 Y110.095 E.01393
G1 X108.193 Y109.514 E.01254
;WIDTH:0.68083
G1 X108.531 Y109.116 E.00934
G1 X108.914 Y108.762 E.00933
;WIDTH:0.680168
G1 X109.418 Y108.399 E.0111
;WIDTH:0.690728
G1 X110.011 Y108.085 E.01219
G1 X110.669 Y107.844 E.01273
;WIDTH:0.689338
G1 X111.496 Y107.682 E.01527
;WIDTH:0.688014
G1 X112.146 Y107.652 E.01177
;WIDTH:0.66442
G1 X112.693 Y107.695 E.00956
G1 X113.212 Y107.809 E.00926
;WIDTH:0.653298
G1 X113.749 Y107.983 E.00966
;WIDTH:0.667556
G1 X114.301 Y108.233 E.01061
;WIDTH:0.682944
G1 X114.767 Y108.519 E.00981
G1 X115.385 Y109.037 E.01447
;WIDTH:0.673272
G1 X115.778 Y109.461 E.01022
G1 X116.202 Y110.085 E.01333
;WIDTH:0.65911
G1 X116.45 Y110.581 E.00958
;WIDTH:0.67041
G1 X116.676 Y111.21 E.01176
G1 X116.817 Y111.896 E.01232
;WIDTH:0.652864
G1 X116.859 Y112.452 E.00954
G1 X116.827 Y113.047 E.01019
;WIDTH:0.648578
G1 X116.715 Y113.662 E.01062
;WIDTH:0.650726
G1 X116.505 Y114.293 E.01134
;WIDTH:0.658772
G1 X116.204 Y114.915 E.01193
G1 X115.925 Y115.338 E.00875
;WIDTH:0.688696
G1 X115.871 Y115.405 E.00156
; stop printing object dropvase1.stl id:309237645384 copy 0
;LAYER_CHANGE
;Z:0.79
;HEIGHT:0.18
;BEFORE_LAYER_CHANGE
;0.79
G92 E0

G1 E-4.23194 F2100
;WIPE_START
G1 F1566.802
G1 X115.745 Y115.56 E-.26806
;WIPE_END
;_SET_FAN_SPEED_CHANGING_LAYER
; printing object dropvase1.stl id:309237645384 copy 0
G1 X115.962 Y115.683 Z.79 F7200
G1 E4.5 F2100
;WIDTH:0.663338
G1 F600
G1 X115.605 Y116.073 E.0092
G1 X115.198 Y116.447 E.00962
;WIDTH:0.653606
G1 X114.785 Y116.753 E.0088
;WIDTH:0.648052
G1 X114.258 Y117.049 E.01026
;WIDTH:0.634336
G1 X113.709 Y117.282 E.00989
;WIDTH:0.625504
M73 P8 R7
G1 X113.172 Y117.44 E.00915
;WIDTH:0.631788
G1 X112.639 Y117.546 E.00898
;WIDTH:0.652324
G1 X111.891 Y117.58 E.0128
G1 X111.077 Y117.499 E.01398
;WIDTH:0.644552
G1 X110.217 Y117.257 E.01508
;WIDTH:0.635378
G1 X109.318 Y116.807 E.01671
;WIDTH:0.641716
G1 X108.862 Y116.486 E.00937
;WIDTH:0.650802
G1 X108.41 Y116.088 E.01027
;WIDTH:0.659634
G1 X108.029 Y115.666 E.00983
G1 X107.712 Y115.218 E.00949
;WIDTH:0.65863
G1 X107.352 Y114.53 E.01341
;WIDTH:0.645514
G1 X107.116 Y113.916 E.01112
G1 X106.978 Y113.288 E.01087
;WIDTH:0.635232
G1 X106.926 Y112.704 E.00974
;WIDTH:0.630916
G1 X106.936 Y112.113 E.00975
;WIDTH:0.667314
G1 X107.029 Y111.491 E.01101
G1 X107.156 Y110.974 E.00932
;WIDTH:0.663092
G1 X107.367 Y110.426 E.01021
;WIDTH:0.668038
G1 X107.681 Y109.837 E.0117
G1 X107.995 Y109.389 E.00959
;WIDTH:0.659976
G1 X108.484 Y108.839 E.01273
G1 X108.907 Y108.471 E.0097
;WIDTH:0.655014
G1 X109.34 Y108.17 E.00905
;WIDTH:0.649218
G1 X109.997 Y107.829 E.01259
;WIDTH:0.6601
G1 X110.662 Y107.602 E.01216
G1 X111.49 Y107.447 E.01458
;WIDTH:0.65469
G1 X112.139 Y107.415 E.01115
;WIDTH:0.63404
G1 X112.697 Y107.459 E.00928
G1 X113.203 Y107.564 E.00857
;WIDTH:0.62628
G1 X113.742 Y107.728 E.00922
;WIDTH:0.636664
G1 X114.289 Y107.963 E.00992
;WIDTH:0.646214
G1 X114.786 Y108.247 E.00969
;WIDTH:0.663464
G1 X115.195 Y108.554 E.0089
G1 X115.607 Y108.923 E.00962
;WIDTH:0.655074
G1 X116.178 Y109.607 E.0153
;WIDTH:0.634964
G1 X116.459 Y110.074 E.00905
;WIDTH:0.631524
G1 X116.823 Y110.895 E.01483
G1 X116.968 Y111.415 E.00891
;WIDTH:0.632922
G1 X117.083 Y112.449 E.01722
;WIDTH:0.634238
G1 X117.042 Y113.17 E.01198
;WIDTH:0.641222
G1 X116.948 Y113.664 E.00844
;WIDTH:0.6545
G1 X116.794 Y114.183 E.00929
G1 X116.401 Y115.041 E.01619
;WIDTH:0.651928
G1 X115.984 Y115.65 E.01261
; stop printing object dropvase1.stl id:309237645384 copy 0
;LAYER_CHANGE
;Z:0.97
;HEIGHT:0.18
;BEFORE_LAYER_CHANGE
;0.97
G92 E0

G1 E-4.23248 F2100
;WIPE_START
G1 F1569.967
G1 X115.851 Y115.799 E-.26752
;WIPE_END
;_SET_FAN_SPEED_CHANGING_LAYER
; printing object dropvase1.stl id:309237645384 copy 0
G1 X116.144 Y115.788 Z.97 F7200
G1 E4.5 F2100
;WIDTH:0.631686
G1 F600
G1 X116.026 Y115.944 E.00323
;WIDTH:0.636482
G1 X115.622 Y116.361 E.00967
G1 X115.215 Y116.715 E.00898
;WIDTH:0.623664
G1 X114.793 Y117.007 E.00836
;WIDTH:0.62004
G1 X114.246 Y117.296 E.01002
;WIDTH:0.607432
G1 X113.704 Y117.515 E.00926
;WIDTH:0.603864
G1 X113.167 Y117.667 E.00879
;WIDTH:0.603336
G1 X112.637 Y117.766 E.00848
;WIDTH:0.623058
G1 X111.891 Y117.798 E.01215
G1 X111.072 Y117.72 E.01339
;WIDTH:0.61738
G1 X110.228 Y117.494 E.01408
;WIDTH:0.613876
G1 X109.333 Y117.071 E.01586
;WIDTH:0.618198
G1 X108.879 Y116.774 E.00876
;WIDTH:0.620514
G1 X108.431 Y116.405 E.00941
G1 X108.018 Y115.976 E.00965
;WIDTH:0.654316
G1 X107.7 Y115.574 E.00879
G1 X107.387 Y115.101 E.00973
;WIDTH:0.632846
G1 X107.086 Y114.478 E.01145
;WIDTH:0.634334
G1 X106.891 Y113.886 E.01034
G1 X106.75 Y113.253 E.01076
;WIDTH:0.601256
G1 X106.704 Y112.699 E.00871
;WIDTH:0.601966
G1 X106.713 Y112.125 E.00901
;WIDTH:0.641484
G1 X106.8 Y111.512 E.01039
G1 X106.919 Y111.006 E.00873
;WIDTH:0.637022
G1 X107.11 Y110.469 E.0095
;WIDTH:0.640014
G1 X107.39 Y109.898 E.01065
M73 P9 R7
G1 X107.696 Y109.418 E.00953
;WIDTH:0.647592
G1 X108.011 Y109.028 E.0085
G1 X108.457 Y108.574 E.01079
;WIDTH:0.6248
G1 X108.901 Y108.203 E.00945
G1 X109.369 Y107.905 E.00906
;WIDTH:0.63528
G1 X109.984 Y107.604 E.01138
G1 X110.656 Y107.377 E.01179
;WIDTH:0.633378
G1 X111.491 Y107.226 E.01405
;WIDTH:0.628794
G1 X112.137 Y107.199 E.01063
;WIDTH:0.604972
G1 X112.666 Y107.235 E.00836
;WIDTH:0.608692
G1 X113.197 Y107.331 E.00857
G1 X113.731 Y107.493 E.00886
;WIDTH:0.600522
G1 X114.273 Y107.719 E.00919
;WIDTH:0.617372
G1 X114.822 Y108.011 E.01002
G1 X115.361 Y108.402 E.01073
;WIDTH:0.614446
G1 X115.881 Y108.898 E.01152
;WIDTH:0.639028
G1 X116.417 Y109.58 E.0145
G1 X116.767 Y110.182 E.01164
;WIDTH:0.622082
G1 X116.997 Y110.741 E.00982
;WIDTH:0.622962
G1 X117.155 Y111.262 E.00886
;WIDTH:0.625878
G1 X117.244 Y111.747 E.00806
G1 X117.3 Y112.45 E.01153
;WIDTH:0.58585
G1 X117.273 Y113.018 E.00867
;WIDTH:0.60116
G1 X117.123 Y113.878 E.01368
;WIDTH:0.602644
G1 X116.926 Y114.459 E.00964
;WIDTH:0.60361
G1 X116.669 Y115.005 E.00949
;WIDTH:0.603814
G1 X116.399 Y115.453 E.00823
;WIDTH:0.631686
G1 X116.168 Y115.756 E.00629
; stop printing object dropvase1.stl id:309237645384 copy 0
;LAYER_CHANGE
;Z:1.15
;HEIGHT:0.18
;BEFORE_LAYER_CHANGE
;1.15
G92 E0

G1 E-4.23723 F2100
;WIPE_START
G1 F1598.365
G1 X116.047 Y115.915 E-.26277
;WIPE_END
;_SET_FAN_SPEED_CHANGING_LAYER
; printing object dropvase1.stl id:309237645384 copy 0
G1 X116.384 Y115.83 Z1.15 F7200
G1 E4.5 F2100
;WIDTH:0.609528
G1 F600
G1 X116.043 Y116.23 E.00836
G1 X115.639 Y116.626 E.00899
;WIDTH:0.608276
G1 X115.227 Y116.959 E.0084
;WIDTH:0.60474
G1 X114.782 Y117.25 E.00838
;WIDTH:0.596138
G1 X114.237 Y117.526 E.00948
;WIDTH:0.583766
G1 X113.699 Y117.733 E.00875
;WIDTH:0.583576
G1 X113.163 Y117.878 E.00843
;WIDTH:0.580398
G1 X112.635 Y117.972 E.00809
;WIDTH:0.599322
G1 X111.89 Y118.002 E.01164
G1 X111.172 Y117.943 E.01125
;WIDTH:0.612366
G1 X110.656 Y117.833 E.00843
;WIDTH:0.614114
G1 X109.981 Y117.612 E.01138
G1 X109.305 Y117.297 E.01195
;WIDTH:0.616142
G1 X108.787 Y116.958 E.00996
G1 X108.013 Y116.273 E.01662
;WIDTH:0.611624
G1 X107.647 Y115.861 E.00879
;WIDTH:0.618114
G1 X107.372 Y115.464 E.00779
G1 X107.067 Y114.935 E.00985
;WIDTH:0.620656
G1 X106.836 Y114.376 E.0098
G1 X106.652 Y113.808 E.00968
;WIDTH:0.595994
G1 X106.507 Y112.906 E.01418
;WIDTH:0.614948
G1 X106.508 Y112.232 E.01082
G1 X106.586 Y111.531 E.01132
;WIDTH:0.607784
G1 X106.801 Y110.702 E.01357
;WIDTH:0.617486
G1 X107.07 Y110.07 E.01107
;WIDTH:0.620114
G1 X107.372 Y109.536 E.00993
G1 X107.679 Y109.101 E.00862
;WIDTH:0.616006
G1 X108.027 Y108.698 E.00856
;WIDTH:0.605562
G1 X108.471 Y108.288 E.00954
;WIDTH:0.59314
G1 X108.918 Y107.949 E.00866
;WIDTH:0.59526
G1 X109.377 Y107.663 E.00838
;WIDTH:0.613236
G1 X109.981 Y107.385 E.01064
G1 X110.65 Y107.168 E.01125
;WIDTH:0.608224
G1 X111.489 Y107.02 E.01351
